assets/resources/favicons/thumbnail.svg

<svg width="100" height="100" viewBox="0 0 100 100" fill="none" xmlns="http://www.w3.org/2000/svg">
<g clip-path="url(#clip0_13956_3833)">
<path d="M2.3333 27.3583C2.3333 20.425 4.75274 14.5389 9.59163 9.7C14.5027 4.78888 20.425 2.33333 27.3583 2.33333L27.25 8.83333C22.1222 8.83333 17.7527 10.6389 14.1416 14.25C10.6027 17.7889 8.8333 22.1222 8.8333 27.25L2.3333 27.3583ZM19.125 80.4417C12.5527 73.8694 9.23052 65.9972 9.1583 56.825C9.1583 47.6528 12.4444 39.7806 19.0166 33.2083L28.55 23.675L32.125 27.25C33.6416 28.7667 34.4 30.5722 34.4 32.6667C34.4722 34.7611 33.7139 36.6028 32.125 38.1917L24.975 45.3417L28.4416 49.1333C30.3916 51.0833 31.3666 53.4667 31.3666 56.2833C31.3666 59.0278 30.3916 61.375 28.4416 63.325L26.275 65.4917L29.9583 69.175L32.125 67.0083C35.0861 64.0472 36.5666 60.4722 36.5666 56.2833C36.5666 52.0944 35.0861 48.5194 32.125 45.5583L35.7 41.875C37.2166 40.3583 38.3 38.6611 38.95 36.7833C39.6 34.8333 39.7444 32.9556 39.3833 31.15L59.8583 10.675L64.5166 15.3333L38.4083 41.4417L45.0166 48.05L77.1916 15.9833L81.7416 20.5333L49.675 52.6L56.2833 59.3167L85.425 30.175L89.975 34.8333L60.9416 63.8667L67.55 70.5833L90.4083 47.725L94.9583 52.3833L66.575 80.7667C60.0027 87.3389 52.0944 90.5889 42.85 90.5167C33.6777 90.4444 25.7694 87.0861 19.125 80.4417ZM72.6416 97.6667L72.75 91.1667C77.8777 91.1667 82.2111 89.3972 85.75 85.8583C89.3611 82.2472 91.1666 77.8778 91.1666 72.75L97.6666 72.6417C97.6666 79.575 95.2111 85.4972 90.3 90.4083C85.4611 95.2472 79.575 97.6667 72.6416 97.6667Z" fill="#090E12" style="fill:#090E12;fill:color(display-p3 0.0353 0.0549 0.0706);fill-opacity:1;"/>
</g>
<defs>
<clipPath id="clip0_13956_3833">
<rect width="100" height="100" fill="white" style="fill:white;fill-opacity:1;"/>
</clipPath>
</defs>
</svg>

<svg xmlns="http://www.w3.org/2000/svg" width="100" height="100" fill="none"><g clip-path="url(#a)"><path fill="#090E12" d="M2.333 27.358q0-10.4 7.259-17.658 7.366-7.367 17.766-7.367l-.108 6.5q-7.692 0-13.108 5.417-5.31 5.308-5.309 13zm16.792 53.084q-9.858-9.86-9.967-23.617 0-13.758 9.859-23.617l9.533-9.533 3.575 3.575q2.275 2.275 2.275 5.417.108 3.141-2.275 5.525l-7.15 7.15 3.467 3.791q2.925 2.925 2.925 7.15 0 4.117-2.925 7.042l-2.167 2.167 3.683 3.683 2.167-2.167q4.442-4.44 4.442-10.725t-4.442-10.725l3.575-3.683q2.275-2.275 3.25-5.092.975-2.925.433-5.633l20.475-20.475 4.659 4.658-26.109 26.109 6.609 6.608 32.175-32.067 4.55 4.55L49.675 52.6l6.608 6.717 29.142-29.142 4.55 4.658-29.033 29.034 6.608 6.716 22.858-22.858 4.55 4.658-28.383 28.384q-9.858 9.858-23.725 9.75-13.758-.109-23.725-10.075m53.517 17.225.108-6.5q7.692 0 13-5.309 5.417-5.416 5.417-13.108l6.5-.108q0 10.4-7.367 17.766-7.258 7.26-17.658 7.259" style="fill:#090e12;fill:color(display-p3 .0353 .0549 .0706);fill-opacity:1"/></g><defs><clipPath id="a"><path fill="#fff" d="M0 0h100v100H0z" style="fill:#fff;fill-opacity:1"/></clipPath></defs></svg>
